X:24 
T:Dublin Volunteers, The 
B:OFPC1.39
F:fileID ofpc1/24dvol
Y:"Irish"
N:1:I made a few adjoining note changes in this, e.g. 
substituting |gfad| for |gfac| in measure 1.
N:2:As usual O'Farrell provides no clue as to a tempo 
for this. The name suggests a march but it makes a nice 
hornpipe as well - see second setting below.
Q:120
M:C
L:1/8
R:march
K:G
P:March
z|GBdf gfad|cBdG BAGF|GBdf gfed|gedc d>e d/c/B/A/|
GBdf gfad|cBdG BAGF|GBdf gfed|ged^c d2 d||
f/g/|afdf gdBG|ecAF GFED|GBdf gf/g/ac|BAGF G2G :|
P:Hornpipe
%Q:150
R:hornpipe
M:C|
z|GBdf gfad|cBdG BAGF|GBdf gfed|gedc d>cBA|
GBdf gfad|cBdG BAGF|GBdf gfed|ged^c d3:|
f/g/|afdf gdBG|ecAF GFED|GBdf gf/g/ac|ded^c d2BA|
GBdf gfad|cBdG BAGF|GBdf gfed|ecAF G3:| 

